static/icons/companies/linkedin-gray.svg

<svg width="24" height="24" viewBox="0 0 24 24" fill="none" xmlns="http://www.w3.org/2000/svg">
<mask id="mask0_1387_3208" style="mask-type:luminance" maskUnits="userSpaceOnUse" x="3" y="3" width="18" height="18">
<path d="M21 3H3V21H21V3Z" fill="white"/>
</mask>
<g mask="url(#mask0_1387_3208)">
<path d="M8.17805 18.9997V9.55356H5.1769V18.9997H8.17805ZM6.6781 8.26408C7.72445 8.26408 8.37587 7.53873 8.37587 6.63224C8.35628 5.70511 7.72445 5 6.698 5C5.67085 5 5 5.70511 5 6.63216C5 7.53864 5.65118 8.26399 6.65844 8.26399L6.6781 8.26408ZM9.83923 18.9997H12.8401V13.7251C12.8401 13.4432 12.8597 13.1605 12.939 12.9591C13.1559 12.3948 13.6497 11.8107 14.4789 11.8107C15.5646 11.8107 15.9992 12.6768 15.9992 13.9468V18.9997H19V13.5836C19 10.6822 17.5196 9.3321 15.5452 9.3321C13.9264 9.3321 13.2154 10.2787 12.8204 10.9234H12.8404V9.55389H9.83939C9.87856 10.44 9.83923 18.9997 9.83923 18.9997Z" fill="#B6B6B7"/>
</g>
</svg>

<svg xmlns="http://www.w3.org/2000/svg" width="24" height="24" fill="none"><mask id="a" width="18" height="18" x="3" y="3" maskUnits="userSpaceOnUse" style="mask-type:luminance"><path fill="#fff" d="M21 3H3v18h18z"/></mask><g mask="url(#a)"><path fill="#B6B6B7" d="M8.178 19V9.554H5.177V19zm-1.5-10.736c1.046 0 1.698-.725 1.698-1.632C8.356 5.705 7.724 5 6.698 5 5.671 5 5 5.705 5 6.632c0 .907.651 1.632 1.658 1.632zM9.84 19h3.001v-5.275c0-.282.02-.564.099-.766.217-.564.71-1.148 1.54-1.148 1.086 0 1.52.866 1.52 2.136V19H19v-5.416c0-2.902-1.48-4.252-3.455-4.252-1.619 0-2.33.947-2.725 1.591h.02v-1.37h-3c.039.887 0 9.447 0 9.447"/></g></svg>
